X:705
T: Lisheen
T: R\'il an Lis\'in
S: B.Breathnach: "Ceol Rince na hEireann" II/192
Z: B.Black
L: 1/8
M: 4/4
R: reel
K: D
DE|F2 AF G2 BG|F2 AF E2 E2|F2 AF G2 BG|F2 AF D2 D2|
F2 AF G2 BG|F2 AF E2 E2|d2 dB AFDE|F2 AF D2 D2 ||
d2 dB AFDE|F2 AF E2 E2|d2 dB AFDE|FAAF D2 D2|
d2 dB AFDE|F2 AF E2 E2|d2 dB AFDE|F2 Af D2 D2 ||

